src/pos-icons/fire-hydrant-off.svg

<svg height="24" viewBox="0 0 24 24" width="24" xmlns="http://www.w3.org/2000/svg"><path d="m20.84 22.73 1.27-1.27-19.72-19.73-1.28 1.27 6.89 6.89v10.11c-1.1 0-2 .9-2 2h12c0-1.1-.89-2-2-2v-2.11zm-10.62-10.62 2.67 2.67c-.27.14-.57.22-.89.22-1.1 0-2-.89-2-2 0-.32.08-.62.22-.89m.98-4.11-2.76-2.76c.5-1.03 1.43-1.81 2.56-2.1v-1.14h2v1.14c1.4.36 2.5 1.46 2.86 2.86h2.14v2zm7.8 3v1h1v2h-1v1h-.8l-1.2-1.2v-2.8zm-14 4v-1h-1v-2h1v-1h2v4zm11-2.2-3.8-3.8h3.8z"/></svg>

<?xml version="1.0" encoding="UTF-8"?><!DOCTYPE svg PUBLIC "-//W3C//DTD SVG 1.1//EN" "http://www.w3.org/Graphics/SVG/1.1/DTD/svg11.dtd"><svg xmlns="http://www.w3.org/2000/svg" xmlns:xlink="http://www.w3.org/1999/xlink" version="1.1" id="mdi-fire-hydrant-off" width="24" height="24" viewBox="0 0 24 24"><path d="M20.84 22.73L22.11 21.46L2.39 1.73L1.11 3L8 9.89V20C6.9 20 6 20.9 6 22H18C18 20.9 17.11 20 16 20V17.89L20.84 22.73M10.22 12.11L12.89 14.78C12.62 14.92 12.32 15 12 15C10.9 15 10 14.11 10 13C10 12.68 10.08 12.38 10.22 12.11M11.2 8L8.44 5.24C8.94 4.21 9.87 3.43 11 3.14V2H13V3.14C14.4 3.5 15.5 4.6 15.86 6H18V8H11.2M19 11V12H20V14H19V15H18.2L17 13.8V11H19M5 15V14H4V12H5V11H7V15H5M16 12.8L12.2 9H16V12.8Z" /></svg>
